X:6
T:Capriole
C:Cliff Stapleton
R:jig
M:6/8
K:C
D2E FAF|G2A GFE|D2E FAF|B2G A3|
D2E FAF|G2A GFE|D2E FAF|B2G A3:|
D2F AcA|B2A GAc|d2c e2e|GAG E3|
D2F AcA|B2A GAc|d2c e2e|BAG A3:|

